X: 17833
T: Hoping Day, The
R: jig
M: 6/8
K: Dmajor
|:fdA BAF|dAF GAB|AFD DEF|EDB, DCB,|
A,B,D DEF|AFd BAF|GFG BAF|1 EDC D2e:|2 EDC D2g||
|:fef gab|ecA d2e|fed BAF|ABd FDB,|A,B,D DEF|
AFd BAF|1 GFG BAF|agf eag:|2 GFG BAB|cAB cde||

